icons/spotify.svg

<svg width="24" height="24" viewBox="0 0 24 24" fill="none" xmlns="http://www.w3.org/2000/svg">
<path d="M6.85033 7.64055C6.82473 7.76314 6.82355 7.88957 6.84687 8.01262C6.89377 8.26083 7.03828 8.48025 7.24694 8.62262C7.45559 8.765 7.71225 8.81867 7.96047 8.77185C8.42915 8.68897 8.91022 8.65849 9.38557 8.6461C10.2839 8.62133 11.488 8.68516 12.7416 9.02143C13.9962 9.35675 15.0707 9.9045 15.8366 10.3741C16.2405 10.6218 16.6482 10.8866 17.0083 11.1962C17.2 11.3608 17.4491 11.4425 17.701 11.4234C17.9529 11.4043 18.1869 11.2859 18.3515 11.0943C18.6897 10.7009 18.643 10.0893 18.2496 9.75017C17.8104 9.37485 17.3227 9.05096 16.8321 8.74994C15.9614 8.21648 14.7164 7.57728 13.2351 7.18099C11.7538 6.78375 10.3563 6.71421 9.33603 6.74089C8.75685 6.75613 8.17862 6.80376 7.60705 6.89902C7.48397 6.92213 7.36665 6.96928 7.26181 7.03777C7.15697 7.10627 7.06666 7.19476 6.99605 7.29819C6.92545 7.40162 6.87593 7.51796 6.85033 7.64055Z" fill="black"/>
<path d="M7.06197 12.2713C7.28573 12.384 7.54488 12.404 7.78328 12.327C8.12627 12.2381 8.47618 12.1785 8.82925 12.1488C9.54084 12.0898 10.5763 12.1107 11.8242 12.4441C13.0722 12.7785 13.98 13.2796 14.5668 13.6854C14.8603 13.8822 15.1329 14.1085 15.3803 14.3608C15.5486 14.5477 15.7832 14.6615 16.0341 14.6778C16.285 14.6942 16.5324 14.6119 16.7235 14.4484C16.9137 14.2822 17.0302 14.0472 17.0471 13.7951C17.0641 13.543 16.9802 13.2946 16.814 13.1043C16.4663 12.7318 16.07 12.4089 15.6518 12.1193C14.9097 11.6059 13.8047 11.0029 12.3177 10.6037C10.8307 10.2055 9.57228 10.175 8.67302 10.2493C8.17195 10.2913 7.65278 10.3598 7.17457 10.5218C6.93821 10.6049 6.74409 10.7777 6.63426 11.0029C6.52444 11.2281 6.50774 11.4875 6.5878 11.7249C6.66785 11.9623 6.83821 12.1586 7.06197 12.2713Z" fill="black"/>
<path d="M6.28868 14.6489C6.35672 14.4075 6.51725 14.2026 6.73541 14.0788C7.14473 13.8815 7.58487 13.7558 8.03668 13.7073C8.814 13.6082 9.92475 13.6321 11.4003 14.0274C12.8769 14.4227 13.8504 14.9581 14.4744 15.4325C14.8414 15.7001 15.1597 16.0288 15.4156 16.4041C15.4787 16.5122 15.5198 16.6317 15.5367 16.7557C15.5536 16.8796 15.5459 17.0058 15.5141 17.1268C15.4823 17.2478 15.4269 17.3614 15.3511 17.461C15.2754 17.5606 15.1807 17.6443 15.0726 17.7073C14.6106 17.9769 14.0772 17.8016 13.7819 17.3853C13.7609 17.3558 13.6323 17.1853 13.3227 16.95C12.9121 16.6375 12.1662 16.205 10.9078 15.8678C9.64849 15.5306 8.78638 15.5325 8.27483 15.5973C8.06907 15.623 7.84806 15.6582 7.65754 15.7459C7.43672 15.8649 7.17788 15.892 6.93719 15.8213C6.6965 15.7507 6.49341 15.5879 6.37199 15.3684C6.25057 15.1489 6.22063 14.8904 6.28868 14.6489Z" fill="black"/>
<path fill-rule="evenodd" clip-rule="evenodd" d="M12 2C6.47715 2 2 6.47715 2 12C2 17.5228 6.47715 22 12 22C17.5228 22 22 17.5228 22 12C22 6.47715 17.5228 2 12 2ZM4 12C4 7.58172 7.58172 4 12 4C16.4183 4 20 7.58172 20 12C20 16.4183 16.4183 20 12 20C7.58172 20 4 16.4183 4 12Z" fill="black"/>
</svg>

<svg
  width="24"
  height="24"
  viewBox="0 0 24 24"
  xmlns="http://www.w3.org/2000/svg"
>
  <path d="M6.85 7.64a.952.952 0 0 0 1.11 1.132c.47-.083.95-.114 1.426-.126.898-.025 2.102.04 3.356.375 1.254.336 2.329.883 3.095 1.353a9.02 9.02 0 0 1 1.171.822.953.953 0 0 0 1.344-.102.963.963 0 0 0-.102-1.344c-.44-.375-.927-.699-1.418-1-.87-.534-2.116-1.173-3.597-1.569-1.481-.397-2.879-.467-3.899-.44-.58.015-1.157.063-1.729.158a.953.953 0 0 0-.757.742z" />
  <path d="M7.062 12.271a.953.953 0 0 0 .721.056 6.26 6.26 0 0 1 1.046-.178c.712-.06 1.747-.038 2.995.295 1.248.334 2.156.836 2.743 1.241.293.197.566.423.813.676a.964.964 0 0 0 1.344.087.952.952 0 0 0 .09-1.344 7.13 7.13 0 0 0-1.162-.985c-.742-.513-1.847-1.116-3.334-1.515-1.487-.398-2.746-.429-3.645-.355-.501.042-1.02.11-1.498.273a.953.953 0 0 0-.113 1.75z" />
  <path d="M6.289 14.649a.953.953 0 0 1 .446-.57c.41-.197.85-.323 1.302-.372.777-.099 1.888-.075 3.363.32 1.477.396 2.45.931 3.074 1.405.367.268.686.597.942.972a.953.953 0 0 1-.343 1.303c-.462.27-.996.095-1.291-.322-.021-.03-.15-.2-.46-.435-.41-.313-1.156-.745-2.414-1.082-1.26-.337-2.122-.335-2.633-.27-.206.025-.427.06-.617.148a.953.953 0 0 1-1.37-1.097z" />
  <path
    fill-rule="evenodd"
    clip-rule="evenodd"
    d="M12 2C6.477 2 2 6.477 2 12s4.477 10 10 10 10-4.477 10-10S17.523 2 12 2zM4 12a8 8 0 1 1 16 0 8 8 0 0 1-16 0z"
  />
</svg>
